src/24/actions/view-list-details.svg

<svg xmlns="http://www.w3.org/2000/svg" viewBox="0 0 24 24"><path d="M4 4v7h7V4H4zm1 1h5v5H5V5zm8 0v1h7V5h-7zm0 4v1h7V9h-7zm-9 4v7h7v-7H4zm9 1v1h4v-1h-4zm0 4v1h4v-1h-4z" fill="currentColor" color="#5d656b"/></svg>

<svg xmlns="http://www.w3.org/2000/svg" viewBox="0 0 24 24">
  <defs id="defs3051">
    <style type="text/css" id="current-color-scheme">
      .ColorScheme-Text {
        color:#5d656b;
      }
      </style>
  </defs>
 <path style="fill:currentColor;fill-opacity:1;stroke:none" 
     d="M 4 4 L 4 11 L 11 11 L 11 4 L 4 4 z M 5 5 L 10 5 L 10 10 L 5 10 L 5 5 z M 13 5 L 13 6 L 20 6 L 20 5 L 13 5 z M 13 9 L 13 10 L 20 10 L 20 9 L 13 9 z M 4 13 L 4 20 L 11 20 L 11 13 L 4 13 z M 13 14 L 13 15 L 17 15 L 17 14 L 13 14 z M 13 18 L 13 19 L 17 19 L 17 18 L 13 18 z "
     class="ColorScheme-Text"
     />
</svg>
